X: 33664
T: Rambling Pitchfork, The
R: jig
M: 6/8
K: Gmajor
AG|F3 AFF|cFF AFD|G3 AB^c|ded ^cAG|
FEF AFF|cFF AFD|DGG BAG|AFD D2E|
FDD ADD|cBc AFD|GFG AB^c|ded ^cAG|
F3 AFF|cFF AFD|G3 BAG|AFD D2||
d2e fed|e^cA ABA|d^cd efg|faf gfe|
d2e fdd|e^cA ABA|G3 BAG|AFD D2A|
d2e fdd|e^cA ABA|d^cd fed|faf g3|
a2f g2e|fed cAF|G3 BAG|AFD D2E||

